X:2215
T:The son of God they did betray
C:Traditional
O:Isle of Man
S:Thomas Caley, Douglas, aged 51.
Z:Clague collection
B:Kiaull Vannin #215
M:4/4 
L:1/4
K:G 
E|A B/A/ G/A/ B|c c/A/ B c/d/|e A A/B/ c|B/A/ G/F/ EE|A B/A/ G/A/B|c c/A/ B c/d/|ee f/e/ d|e3 c/d/|
e3/2 c/ de|c c/A/ B c/d/|eA A/B/ c|B/A/ G/F/ EE|A B/A/ G/A/B|c c/A/ B c/d/|ee f/e/ d|e3||

